X: 1
T: Johnny Dennehy's
D: &quot;Jackie Daly: Many's a Wild Night&quot;
Z: Paul de Grae
M: 6/8
L: 1/8
R: jig
K: Amaj
|: E |\ 
A2 B cBc | Ace a2 f | ecA BAF | BcB BAF |
A2 B cBc | Ace a2 f | ecA BAB | cAA A2 :|
|: f |\ 
ece a2 f | ece a2 f | ecA BAF | BcB BAF |
A2 B cBc | Ace a2 f | ecA BAB | cAA A2 :|
